Sources/FrostedUI/Resources/Icons.xcassets/thumbUp12.imageset/thumb-up-12.svg

<svg width="12" height="12" viewBox="0 0 12 12" fill="none" xmlns="http://www.w3.org/2000/svg" data-fui-icon="true">
  <path
    d="M6.00293 0.635742C6.97618 0.744442 7.69254 1.64736 7.53711 2.64453L7.38379 3.625H9.12988C10.5072 3.62526 11.5607 4.85221 11.3535 6.21387L10.9355 8.96387C10.7681 10.063 9.82277 10.875 8.71094 10.875H1.875C1.18466 10.875 0.625 10.3154 0.625 9.625V5.875C0.625 5.18463 1.18466 4.625 1.875 4.625H2.98145L4.69336 1.30273C4.90817 0.885577 5.33868 0.625 5.80566 0.625L6.00293 0.635742ZM2.125 9.375H2.625V6.125H2.125V9.375ZM4.125 5.68164V9.375H8.71094C9.08142 9.375 9.3962 9.10446 9.45215 8.73828L9.87109 5.98828C9.94014 5.53452 9.58886 5.12526 9.12988 5.125H6.50781C6.28881 5.12493 6.08091 5.02867 5.93848 4.8623C5.79619 4.69599 5.73299 4.47604 5.7666 4.25977L6.05469 2.41309C6.07049 2.3107 6.01988 2.21421 5.93652 2.16309L4.125 5.68164Z"
    fill="currentColor"
  />
</svg>

<svg xmlns="http://www.w3.org/2000/svg" width="12" height="12" fill="none" data-fui-icon="true" viewBox="0 0 12 12"><path fill="currentColor" d="M6.003.636a1.75 1.75 0 0 1 1.534 2.009l-.153.98H9.13a2.25 2.25 0 0 1 2.223 2.589l-.418 2.75a2.25 2.25 0 0 1-2.224 1.911H1.875c-.69 0-1.25-.56-1.25-1.25v-3.75c0-.69.56-1.25 1.25-1.25h1.106l1.712-3.322A1.25 1.25 0 0 1 5.806.625zM2.125 9.375h.5v-3.25h-.5zm2-3.693v3.693h4.586a.75.75 0 0 0 .741-.637l.42-2.75a.75.75 0 0 0-.742-.863H6.508a.75.75 0 0 1-.741-.865l.288-1.847a.25.25 0 0 0-.118-.25z"/></svg>
